svg/icon/zcl.svg

<svg xmlns="http://www.w3.org/2000/svg" xmlns:xlink="http://www.w3.org/1999/xlink" width="32" height="32" viewBox="0 0 32 32">
  <defs>
    <linearGradient id="zcl-c" x1="50%" x2="50%" y1="0%" y2="100%">
      <stop offset="0%" stop-color="#FFF" stop-opacity=".5"/>
      <stop offset="100%" stop-opacity=".5"/>
    </linearGradient>
    <circle id="zcl-b" cx="16" cy="15" r="15"/>
    <filter id="zcl-a" width="111.7%" height="111.7%" x="-5.8%" y="-4.2%" filterUnits="objectBoundingBox">
      <feOffset dy=".5" in="SourceAlpha" result="shadowOffsetOuter1"/>
      <feGaussianBlur in="shadowOffsetOuter1" result="shadowBlurOuter1" stdDeviation=".5"/>
      <feComposite in="shadowBlurOuter1" in2="SourceAlpha" operator="out" result="shadowBlurOuter1"/>
      <feColorMatrix in="shadowBlurOuter1" values="0 0 0 0 0   0 0 0 0 0   0 0 0 0 0  0 0 0 0.199473505 0"/>
    </filter>
    <path id="zcl-e" d="M15.9922462,26 C9.9168701,25.9961179 5,21.0697023 5,14.9864137 C5,8.9147715 9.93236851,3.99612017 16.0154938,4.0000023 C22.0792462,4.00388442 27.0077401,8.93418212 26.9999909,15.0019422 C26.9883671,21.0037062 22.1644874,25.9922358 15.9922462,26 Z M11.5093316,20.029293 C11.5403284,19.9710612 11.563576,19.9244757 11.5868236,19.8856544 C12.5709726,18.1503449 13.556413,16.4163295 14.543145,14.683608 C15.4071813,13.1656975 16.2686345,11.6464929 17.1275047,10.1259942 C17.1523393,10.0657756 17.2140001,10.0293409 17.2786141,10.0367054 C18.2821361,10.0405875 19.2895326,10.0405875 20.2930546,10.0405875 L20.4364149,10.0405875 C19.0415581,12.5018542 17.6583251,14.9437103 16.2634684,17.401095 C16.3138382,17.4049771 16.3409604,17.4049771 16.3680826,17.4049771 C18.886574,17.4049771 21.4037739,17.4062711 23.9196822,17.4088592 C24.0049234,17.4088592 24.0320456,17.3778022 24.0514187,17.3040418 C24.4324903,15.9592382 24.468474,14.5397967 24.1560329,13.1773438 C23.7801965,11.5274411 22.9549063,10.1337585 21.7382812,8.96912124 C21.1918742,8.44846702 20.5717016,8.01154117 19.8978452,7.67249177 C18.2240171,6.81842445 16.4610731,6.54667576 14.6128879,6.87277419 C12.7724519,7.19887262 11.222611,8.06846843 9.95174152,9.44274039 C9.78513363,9.6213181 9.63402414,9.81542431 9.47516546,10.0017663 C9.47904006,10.0134126 9.48678926,10.0211769 9.49066386,10.0328233 L16.6703016,10.0328233 C16.6315556,10.1065836 16.6044334,10.1609334 16.5734366,10.211401 C16.1356065,10.9878258 15.6939019,11.7603685 15.2599464,12.5367934 C15.2249298,12.6151302 15.1436801,12.6620961 15.0584671,12.6532571 C12.7956995,12.649375 10.5342234,12.6480809 8.2740388,12.649375 L8.13842772,12.649375 C6.99154549,16.2519862 8.61112918,20.7707787 12.6717122,22.5798486 C16.6044334,24.3345687 20.72701,22.7196051 22.6604365,20.0215288 C18.9446931,20.029293 15.2276581,20.0318811 11.5093316,20.029293 Z M24.1521583,21.9276517 C25.5470151,20.3786842 26.7868878,17.8281286 26.7093957,14.7651326 C26.6474021,12.2417519 25.7833658,10.025059 24.1676567,8.06458631 C23.6639584,8.57314458 23.171884,9.06617435 22.6836841,9.55920412 C25.2447961,12.6377286 25.353285,17.1914602 22.7108063,20.4602088 L24.1521583,21.9276517 Z"/>
    <filter id="zcl-d" width="115.9%" height="115.9%" x="-8%" y="-5.7%" filterUnits="objectBoundingBox">
      <feOffset dy=".5" in="SourceAlpha" result="shadowOffsetOuter1"/>
      <feGaussianBlur in="shadowOffsetOuter1" result="shadowBlurOuter1" stdDeviation=".5"/>
      <feColorMatrix in="shadowBlurOuter1" values="0 0 0 0 0   0 0 0 0 0   0 0 0 0 0  0 0 0 0.204257246 0"/>
    </filter>
  </defs>
  <g fill="none" fill-rule="evenodd">
    <use fill="#000" filter="url(#zcl-a)" xlink:href="#zcl-b"/>
    <use fill="#C87035" xlink:href="#zcl-b"/>
    <use fill="url(#zcl-c)" style="mix-blend-mode:soft-light" xlink:href="#zcl-b"/>
    <circle cx="16" cy="15" r="14.5" stroke="#000" stroke-opacity=".097"/>
    <g fill-rule="nonzero">
      <use fill="#000" filter="url(#zcl-d)" xlink:href="#zcl-e"/>
      <use fill="#FFF" fill-rule="evenodd" xlink:href="#zcl-e"/>
    </g>
  </g>
</svg>

<svg height="32" width="32" xmlns="http://www.w3.org/2000/svg" xmlns:xlink="http://www.w3.org/1999/xlink"><defs><linearGradient id="c" x1="50%" x2="50%" y1="0%" y2="100%"><stop offset="0" stop-color="#fff" stop-opacity=".5"/><stop offset="1" stop-opacity=".5"/></linearGradient><circle id="b" cx="16" cy="15" r="15"/><filter id="a" height="111.7%" width="111.7%" x="-5.8%" y="-4.2%"><feOffset dy=".5" in="SourceAlpha" result="shadowOffsetOuter1"/><feGaussianBlur in="shadowOffsetOuter1" result="shadowBlurOuter1" stdDeviation=".5"/><feComposite in="shadowBlurOuter1" in2="SourceAlpha" operator="out" result="shadowBlurOuter1"/><feColorMatrix in="shadowBlurOuter1" values="0 0 0 0 0 0 0 0 0 0 0 0 0 0 0 0 0 0 0.199473505 0"/></filter><path id="e" d="M15.992 26C9.917 25.996 5 21.07 5 14.986 5 8.915 9.932 3.996 16.015 4 22.08 4.004 27.008 8.934 27 15.002c-.012 6.002-4.836 10.99-11.008 10.998zm-4.483-5.97c.031-.059.055-.106.078-.144.984-1.736 1.97-3.47 2.956-5.202.864-1.518 1.726-3.038 2.585-4.558a.146.146 0 0 1 .15-.09c1.004.005 2.012.005 3.015.005h.143c-1.394 2.46-2.778 4.903-4.173 7.36.05.004.078.004.105.004 2.519 0 5.036.001 7.552.004.085 0 .112-.031.131-.105a8.318 8.318 0 0 0 .105-4.127c-.376-1.65-1.201-3.043-2.418-4.208a7.657 7.657 0 0 0-1.84-1.297c-1.674-.854-3.437-1.125-5.285-.8-1.84.327-3.39 1.196-4.661 2.57-.167.18-.318.373-.477.56.004.011.012.02.016.03h7.18c-.04.075-.067.129-.098.18-.437.776-.88 1.548-1.313 2.325a.198.198 0 0 1-.202.116c-2.262-.004-4.524-.005-6.784-.004h-.136c-1.146 3.603.473 8.122 4.534 9.93 3.932 1.756 8.055.14 9.988-2.557-3.715.007-7.432.01-11.15.007zm12.643 1.898c1.395-1.55 2.635-4.1 2.557-7.163-.062-2.523-.926-4.74-2.541-6.7-.504.508-.996 1.001-1.484 1.494 2.56 3.079 2.67 7.632.027 10.901z"/><filter id="d" height="115.9%" width="115.9%" x="-8%" y="-5.7%"><feOffset dy=".5" in="SourceAlpha" result="shadowOffsetOuter1"/><feGaussianBlur in="shadowOffsetOuter1" result="shadowBlurOuter1" stdDeviation=".5"/><feColorMatrix in="shadowBlurOuter1" values="0 0 0 0 0 0 0 0 0 0 0 0 0 0 0 0 0 0 0.204257246 0"/></filter></defs><g fill="none" fill-rule="evenodd"><use fill="#000" filter="url(#a)" xlink:href="#b"/><use fill="#c87035" xlink:href="#b"/><use fill="url(#c)" xlink:href="#b"/><circle cx="16" cy="15" r="14.5" stroke="#000" stroke-opacity=".097"/><g fill-rule="nonzero"><use fill="#000" filter="url(#d)" xlink:href="#e"/><use fill="#fff" fill-rule="evenodd" xlink:href="#e"/></g></g></svg>
